!!!COM: Vivaldi, Antonio
!!!CDT: 1678/03/04/-1741/07/27/
!!!OTL: Concerto in E Minor, Op. 6, No. 5
!!!OMV: No. 2
!!!OMD: Largo
**kern	**dynam	**kern	**kern	**kern	**dynam	**kern	**dynam	**kern	**dynam	**kern	**dynam	**kern	**dynam
*staff8	*staff8	*staff7	*staff6	*staff5	*staff5	*staff4	*staff4	*staff3	*staff3	*staff2	*staff2	*staff1	*staff1
*Icemba	*Icemba	*Icemba	*Icbass	*Icello	*Icello	*Iviola	*Iviola	*Ivioln	*Ivioln	*Ivioln	*Ivioln	*Ivioln	*Ivioln
*clefF4	*clefF4	*clefG2	*clefF4	*clefF4	*clefF4	*clefC3	*clefC3	*clefG2	*clefG2	*clefG2	*clefG2	*clefG2	*clefG2
*k[f#c#]	*k[f#c#]	*k[f#c#]	*k[f#c#]	*k[f#c#]	*k[f#c#]	*k[f#c#]	*k[f#c#]	*k[f#c#]	*k[f#c#]	*k[f#c#]	*k[f#c#]	*k[f#c#]	*k[f#c#]
*M3/4	*M3/4	*M3/4	*M3/4	*M3/4	*M3/4	*M3/4	*M3/4	*M3/4	*M3/4	*M3/4	*M3/4	*M3/4	*M3/4
*MM60	*MM60	*MM60	*MM60	*MM60	*MM60	*MM60	*MM60	*MM60	*MM60	*MM60	*MM60	*MM60	*MM60
=1-	=1-	=1-	=1-	=1-	=1-	=1-	=1-	=1-	=1-	=1-	=1-	=1-	=1-
4BB/	p	2.r	2.r	4BB/	p	4f#\	p	4dd\	p	4bb\	p	4bb\	mf
4BB/	.	.	.	4BB/	.	4f#\	.	4dd\	.	4bb\	.	4bb\	.
4BB/	.	.	.	4BB/	.	4f#\	.	4dd\	.	4bb\	.	4bb\	.
=2	=2	=2	=2	=2	=2	=2	=2	=2	=2	=2	=2	=2	=2
2.E#\	.	2.r	2.r	2.E#\	.	4g#\	.	4dd\	.	4bb\	.	8bb\L	.
.	.	.	.	.	.	.	.	.	.	.	.	8gg#\J	.
.	.	.	.	.	.	4r	.	4r	.	4r	.	16bb\LL	.
.	.	.	.	.	.	.	.	.	.	.	.	16gg#\	.
.	.	.	.	.	.	.	.	.	.	.	.	16bb\	.
.	.	.	.	.	.	.	.	.	.	.	.	16ee#\JJ	.
.	.	.	.	.	.	4r	.	4r	.	4r	.	16gg#\LL	.
.	.	.	.	.	.	.	.	.	.	.	.	16cc#\	.
.	.	.	.	.	.	.	.	.	.	.	.	16dd\	.
.	.	.	.	.	.	.	.	.	.	.	.	16b\JJ	.
=3	=3	=3	=3	=3	=3	=3	=3	=3	=3	=3	=3	=3	=3
4F#\	.	2.r	2.r	4F#\	.	4a\	.	4cc#\	.	4aa\	.	4a/	.
4F#\	.	.	.	4F#\	.	4a\	.	4cc#\	.	4aa\	.	4aa\	.
4F#\	.	.	.	4F#\	.	4a\	.	4cc#\	.	4aa\	.	4aa\	.
=4	=4	=4	=4	=4	=4	=4	=4	=4	=4	=4	=4	=4	=4
2.BB/	.	2.r	2.r	2.BB/	.	4f#\	.	4dd#\	.	4aa\	.	8aa\L	.
.	.	.	.	.	.	.	.	.	.	.	.	8aa\J	.
.	.	.	.	.	.	4r	.	4r	.	4r	.	16ccc#\LL	.
.	.	.	.	.	.	.	.	.	.	.	.	16aa\	.
.	.	.	.	.	.	.	.	.	.	.	.	16ccc#\	.
.	.	.	.	.	.	.	.	.	.	.	.	16ff#\JJ	.
.	.	.	.	.	.	4r	.	4r	.	4r	.	16aa\LL	.
.	.	.	.	.	.	.	.	.	.	.	.	16dd#\	.
.	.	.	.	.	.	.	.	.	.	.	.	16ff#\	.
.	.	.	.	.	.	.	.	.	.	.	.	16a\JJ	.
=5	=5	=5	=5	=5	=5	=5	=5	=5	=5	=5	=5	=5	=5
4E\	.	2.r	2.r	4E\	.	4g\	.	4b\	.	4gg\	.	4g/	.
4E\	.	.	.	4E\	.	4g\	.	4b\	.	4gg\	.	4gg\	.
4E\	.	.	.	4E\	.	4g\	.	4b\	.	4gg\	.	4gg\	.
=6	=6	=6	=6	=6	=6	=6	=6	=6	=6	=6	=6	=6	=6
2.AA#/	.	2.r	2.r	2.AA#/	.	4e\	.	4cc#\	.	4gg\	.	8gg\L	.
.	.	.	.	.	.	.	.	.	.	.	.	8ee\J	.
.	.	.	.	.	.	4r	.	4r	.	4r	.	16gg\LL	.
.	.	.	.	.	.	.	.	.	.	.	.	16ee\	.
.	.	.	.	.	.	.	.	.	.	.	.	16aa#\	.
.	.	.	.	.	.	.	.	.	.	.	.	16ff#\JJ	.
.	.	.	.	.	.	4r	.	4r	.	4r	.	16ccc#\LL	.
.	.	.	.	.	.	.	.	.	.	.	.	16aa#\	.
.	.	.	.	.	.	.	.	.	.	.	.	16ccc#\	.
.	.	.	.	.	.	.	.	.	.	.	.	16ee\JJ	.
=7	=7	=7	=7	=7	=7	=7	=7	=7	=7	=7	=7	=7	=7
4BB/	.	2.r	2.r	4BB/	.	4f#\	.	4dd#\	.	4ff#\	.	4dd#\	.
4BB/	.	.	.	4BB/	.	4f#\	.	4dd#\	.	4ff#\	.	4ff#\	.
4BB/	.	.	.	4BB/	.	4f#\	.	4dd#\	.	4ff#\	.	4ff#\	.
=8	=8	=8	=8	=8	=8	=8	=8	=8	=8	=8	=8	=8	=8
2.GG#/	.	2.r	2.r	2.GG#/	.	4b\	.	4dd\	.	4ffn\	.	16ffn\LL	.
.	.	.	.	.	.	.	.	.	.	.	.	16dd\	.
.	.	.	.	.	.	.	.	.	.	.	.	16cc#\	.
.	.	.	.	.	.	.	.	.	.	.	.	16dd\JJ	.
.	.	.	.	.	.	4r	.	4r	.	4r	.	16gg#\LL	.
.	.	.	.	.	.	.	.	.	.	.	.	16dd\	.
.	.	.	.	.	.	.	.	.	.	.	.	16cc#\	.
.	.	.	.	.	.	.	.	.	.	.	.	16dd\JJ	.
.	.	.	.	.	.	4r	.	4r	.	4r	.	16bb\LL	.
.	.	.	.	.	.	.	.	.	.	.	.	16dd\	.
.	.	.	.	.	.	.	.	.	.	.	.	16cc#\	.
.	.	.	.	.	.	.	.	.	.	.	.	16b\JJ	.
=9	=9	=9	=9	=9	=9	=9	=9	=9	=9	=9	=9	=9	=9
4D#\	.	2.r	2.r	4D#\	.	4a\	.	4ccn\	.	4ff#\	.	4ccn\	.
4D#\	.	.	.	4D#\	.	4a\	.	4cc\	.	4ff#\	.	4cc\	.
4D#\	.	.	.	4D#\	.	4a\	.	4cc\	.	4ff#\	.	4cc\	.
=10	=10	=10	=10	=10	=10	=10	=10	=10	=10	=10	=10	=10	=10
2.D#\	.	2.r	2.r	2.D#\	.	4a\	.	4ccn\	.	4ff#\	.	16ccn\LL	.
.	.	.	.	.	.	.	.	.	.	.	.	16a\	.
.	.	.	.	.	.	.	.	.	.	.	.	16cc\	.
.	.	.	.	.	.	.	.	.	.	.	.	16a\JJ	.
.	.	.	.	.	.	4r	.	4r	.	4r	.	16dd#\LL	.
.	.	.	.	.	.	.	.	.	.	.	.	16b\	.
.	.	.	.	.	.	.	.	.	.	.	.	16ff#\	.
.	.	.	.	.	.	.	.	.	.	.	.	16dd#\JJ	.
.	.	.	.	.	.	4r	.	4r	.	4r	.	16aa\LL	.
.	.	.	.	.	.	.	.	.	.	.	.	16ff#\	.
.	.	.	.	.	.	.	.	.	.	.	.	16bb\	.
.	.	.	.	.	.	.	.	.	.	.	.	16ff#\JJ	.
=11	=11	=11	=11	=11	=11	=11	=11	=11	=11	=11	=11	=11	=11
4E\	.	2.r	2.r	4E\	.	4g\	.	4b\	.	4gg\	.	16gg\LL	.
.	.	.	.	.	.	.	.	.	.	.	.	16ee\	.
.	.	.	.	.	.	.	.	.	.	.	.	16gg\	.
.	.	.	.	.	.	.	.	.	.	.	.	16bb\JJ	.
4E\	.	.	.	4E\	.	4g\	.	4b\	.	4gg\	.	16bb\LL	.
.	.	.	.	.	.	.	.	.	.	.	.	16gg\	.
.	.	.	.	.	.	.	.	.	.	.	.	16ee\	.
.	.	.	.	.	.	.	.	.	.	.	.	16bb\JJ	.
4E\	.	.	.	4E\	.	4g\	.	4b\	.	4gg\	.	16bb\LL	.
.	.	.	.	.	.	.	.	.	.	.	.	16ee\	.
.	.	.	.	.	.	.	.	.	.	.	.	16gg\	.
.	.	.	.	.	.	.	.	.	.	.	.	16bb\JJ	.
=12	=12	=12	=12	=12	=12	=12	=12	=12	=12	=12	=12	=12	=12
4A\	.	2.r	2.r	4A\	.	4e\	.	4cc#\	.	4gg\	.	16cc#\LL	.
.	.	.	.	.	.	.	.	.	.	.	.	16a\	.
.	.	.	.	.	.	.	.	.	.	.	.	16cc#\	.
.	.	.	.	.	.	.	.	.	.	.	.	16ee\JJ	.
4A\	.	.	.	4A\	.	4e\	.	4cc#\	.	4gg\	.	16ee\LL	.
.	.	.	.	.	.	.	.	.	.	.	.	16a\	.
.	.	.	.	.	.	.	.	.	.	.	.	16cc#\	.
.	.	.	.	.	.	.	.	.	.	.	.	16ee\JJ	.
4A\	.	.	.	4A\	.	4e\	.	4cc#\	.	4gg\	.	16gg\LL	.
.	.	.	.	.	.	.	.	.	.	.	.	16ee\	.
.	.	.	.	.	.	.	.	.	.	.	.	16gg\	.
.	.	.	.	.	.	.	.	.	.	.	.	16ccc#\JJ	.
=13	=13	=13	=13	=13	=13	=13	=13	=13	=13	=13	=13	=13	=13
4A\	.	2.r	2.r	4A\	.	4f#\	.	4cc#\	.	4ff#\	.	16ff#\LL	.
.	.	.	.	.	.	.	.	.	.	.	.	16cc#\	.
.	.	.	.	.	.	.	.	.	.	.	.	16ff#\	.
.	.	.	.	.	.	.	.	.	.	.	.	16aa\JJ	.
4A\	.	.	.	4A\	.	4f#\	.	4cc#\	.	4ff#\	.	16aa\LL	.
.	.	.	.	.	.	.	.	.	.	.	.	16cc#\	.
.	.	.	.	.	.	.	.	.	.	.	.	16ff#\	.
.	.	.	.	.	.	.	.	.	.	.	.	16aa\JJ	.
4A\	.	.	.	4A\	.	4f#\	.	4cc#\	.	4ff#\	.	16ccc#\LL	.
.	.	.	.	.	.	.	.	.	.	.	.	16aa\	.
.	.	.	.	.	.	.	.	.	.	.	.	16ff#\	.
.	.	.	.	.	.	.	.	.	.	.	.	16cc#\JJ	.
=14	=14	=14	=14	=14	=14	=14	=14	=14	=14	=14	=14	=14	=14
4G\	.	2.r	2.r	4G\	.	4b\	.	4dd\	.	4ff#\	.	16b\LL	.
.	.	.	.	.	.	.	.	.	.	.	.	16g\	.
.	.	.	.	.	.	.	.	.	.	.	.	16b\	.
.	.	.	.	.	.	.	.	.	.	.	.	16dd\JJ	.
4G\	.	.	.	4G\	.	4b\	.	4dd\	.	4ff#\	.	16dd\LL	.
.	.	.	.	.	.	.	.	.	.	.	.	16b\	.
.	.	.	.	.	.	.	.	.	.	.	.	16dd\	.
.	.	.	.	.	.	.	.	.	.	.	.	16ff#\JJ	.
4G\	.	.	.	4G\	.	4b\	.	4dd\	.	4ff#\	.	16ff#\LL	.
.	.	.	.	.	.	.	.	.	.	.	.	16dd\	.
.	.	.	.	.	.	.	.	.	.	.	.	16ff#\	.
.	.	.	.	.	.	.	.	.	.	.	.	16bb\JJ	.
=15	=15	=15	=15	=15	=15	=15	=15	=15	=15	=15	=15	=15	=15
4G\	.	2.r	2.r	4G\	.	4e\	.	4b\	.	4ee\	.	16ee\LL	.
.	.	.	.	.	.	.	.	.	.	.	.	16b\	.
.	.	.	.	.	.	.	.	.	.	.	.	16ee\	.
.	.	.	.	.	.	.	.	.	.	.	.	16gg\JJ	.
4G\	.	.	.	4G\	.	4e\	.	4b\	.	4ee\	.	16gg\LL	.
.	.	.	.	.	.	.	.	.	.	.	.	16b\	.
.	.	.	.	.	.	.	.	.	.	.	.	16ee\	.
.	.	.	.	.	.	.	.	.	.	.	.	16gg\JJ	.
4G\	.	.	.	4G\	.	4e\	.	4b\	.	4ee\	.	16bb\LL	.
.	.	.	.	.	.	.	.	.	.	.	.	16gg\	.
.	.	.	.	.	.	.	.	.	.	.	.	16ee\	.
.	.	.	.	.	.	.	.	.	.	.	.	16b\JJ	.
=16	=16	=16	=16	=16	=16	=16	=16	=16	=16	=16	=16	=16	=16
4F#\	.	2.r	2.r	4F#\	.	4a\	.	4cc#\	.	4ee\	.	16cc#\LL	.
.	.	.	.	.	.	.	.	.	.	.	.	16a\	.
.	.	.	.	.	.	.	.	.	.	.	.	16cc#\	.
.	.	.	.	.	.	.	.	.	.	.	.	16ee\JJ	.
4F#\	.	.	.	4F#\	.	4a\	.	4cc#\	.	4ee\	.	16ee\LL	.
.	.	.	.	.	.	.	.	.	.	.	.	16cc#\	.
.	.	.	.	.	.	.	.	.	.	.	.	16a\	.
.	.	.	.	.	.	.	.	.	.	.	.	16cc#\JJ	.
4F#\	.	.	.	4F#\	.	4a\	.	4cc#\	.	4ee\	.	16ee\LL	.
.	.	.	.	.	.	.	.	.	.	.	.	16ff#\	.
.	.	.	.	.	.	.	.	.	.	.	.	16aa\	.
.	.	.	.	.	.	.	.	.	.	.	.	16ee\JJ	.
=17	=17	=17	=17	=17	=17	=17	=17	=17	=17	=17	=17	=17	=17
4E#\	.	2.r	2.r	4E#\	.	4B/	.	4g#/	.	4dd\	.	16dd\LL	.
.	.	.	.	.	.	.	.	.	.	.	.	16b\	.
.	.	.	.	.	.	.	.	.	.	.	.	16cc#\	.
.	.	.	.	.	.	.	.	.	.	.	.	16b\JJ	.
4E#\	.	.	.	4E#\	.	4B/	.	4g#/	.	4dd\	.	16dd\LL	.
.	.	.	.	.	.	.	.	.	.	.	.	16b\	.
.	.	.	.	.	.	.	.	.	.	.	.	16cc#\	.
.	.	.	.	.	.	.	.	.	.	.	.	16b\JJ	.
4E#\	.	.	.	4E#\	.	4B/	.	4g#/	.	4dd\	.	16gg#\LL	.
.	.	.	.	.	.	.	.	.	.	.	.	16cc#\	.
.	.	.	.	.	.	.	.	.	.	.	.	16dd\	.
.	.	.	.	.	.	.	.	.	.	.	.	16b\JJ	.
=18	=18	=18	=18	=18	=18	=18	=18	=18	=18	=18	=18	=18	=18
4F#\	.	2.r	2.r	4F#\	.	4A/	.	4a/	.	4cc#\	.	16a/LL	.
.	.	.	.	.	.	.	.	.	.	.	.	16f#/	.
.	.	.	.	.	.	.	.	.	.	.	.	16g#/	.
.	.	.	.	.	.	.	.	.	.	.	.	16f#/JJ	.
4F#\	.	.	.	4F#\	.	4A/	.	4a/	.	4cc#\	.	16cc#\LL	.
.	.	.	.	.	.	.	.	.	.	.	.	16a\	.
.	.	.	.	.	.	.	.	.	.	.	.	16cc#\	.
.	.	.	.	.	.	.	.	.	.	.	.	16a\JJ	.
4F#\	.	.	.	4F#\	.	4c#\	.	4a/	.	4cc#\	.	16ff#\LL	.
.	.	.	.	.	.	.	.	.	.	.	.	16cc#\	.
.	.	.	.	.	.	.	.	.	.	.	.	16ff#\	.
.	.	.	.	.	.	.	.	.	.	.	.	16aa\JJ	.
=19	=19	=19	=19	=19	=19	=19	=19	=19	=19	=19	=19	=19	=19
4F#\	.	2.r	2.r	4F#\	.	4d#\	.	4g#/	.	4b#\	.	16b#\LL	.
.	.	.	.	.	.	.	.	.	.	.	.	16g#\	.
.	.	.	.	.	.	.	.	.	.	.	.	16b#\	.
.	.	.	.	.	.	.	.	.	.	.	.	16dd#\JJ	.
4F#\	.	.	.	4F#\	.	4d#\	.	4g#/	.	4b#\	.	16dd#\LL	.
.	.	.	.	.	.	.	.	.	.	.	.	16b#\	.
.	.	.	.	.	.	.	.	.	.	.	.	16dd#\	.
.	.	.	.	.	.	.	.	.	.	.	.	16gg#\JJ	.
4F#\	.	.	.	4F#\	.	4d#\	.	4g#/	.	4b#\	.	16gg#\LL	.
.	.	.	.	.	.	.	.	.	.	.	.	16ff#\	.
.	.	.	.	.	.	.	.	.	.	.	.	16ee\	.
.	.	.	.	.	.	.	.	.	.	.	.	16dd#\JJ	.
=20	=20	=20	=20	=20	=20	=20	=20	=20	=20	=20	=20	=20	=20
4E\	.	2.r	2.r	4E\	.	4e\	.	4g#/	.	4cc#\	.	16ee\LL	.
.	.	.	.	.	.	.	.	.	.	.	.	16cc#\	.
.	.	.	.	.	.	.	.	.	.	.	.	16b#\	.
.	.	.	.	.	.	.	.	.	.	.	.	16cc#\JJ	.
4E\	.	.	.	4E\	.	4e\	.	4g#/	.	4cc#\	.	16gg#\LL	.
.	.	.	.	.	.	.	.	.	.	.	.	16cc#\	.
.	.	.	.	.	.	.	.	.	.	.	.	16b#\	.
.	.	.	.	.	.	.	.	.	.	.	.	16cc#\JJ	.
4E\	.	.	.	4E\	.	4e\	.	4g#/	.	4cc#\	.	16ccc#\LL	.
.	.	.	.	.	.	.	.	.	.	.	.	16cc#\	.
.	.	.	.	.	.	.	.	.	.	.	.	16b#\	.
.	.	.	.	.	.	.	.	.	.	.	.	16cc#\JJ	.
=21	=21	=21	=21	=21	=21	=21	=21	=21	=21	=21	=21	=21	=21
4F#\	.	2.r	2.r	4F#\	.	4e\	.	4a#/	.	4cc#\	.	16a#/LL	.
.	.	.	.	.	.	.	.	.	.	.	.	16f#/	.
.	.	.	.	.	.	.	.	.	.	.	.	16a#/	.
.	.	.	.	.	.	.	.	.	.	.	.	16cc#/JJ	.
4F#\	.	.	.	4F#\	.	4e\	.	4a#/	.	4cc#\	.	16cc#\LL	.
.	.	.	.	.	.	.	.	.	.	.	.	16a#\	.
.	.	.	.	.	.	.	.	.	.	.	.	16cc#\	.
.	.	.	.	.	.	.	.	.	.	.	.	16ee\JJ	.
4F#\	.	.	.	4F#\	.	4e\	.	4a#/	.	4cc#\	.	16ff#\LL	.
.	.	.	.	.	.	.	.	.	.	.	.	16cc#\	.
.	.	.	.	.	.	.	.	.	.	.	.	16a#\	.
.	.	.	.	.	.	.	.	.	.	.	.	16f#\JJ	.
=22	=22	=22	=22	=22	=22	=22	=22	=22	=22	=22	=22	=22	=22
4BB/	.	2.r	2.r	4BB/	.	4d\	.	4f#/	.	4b\	.	16f#\LL	.
.	.	.	.	.	.	.	.	.	.	.	.	16dd\	.
.	.	.	.	.	.	.	.	.	.	.	.	16bb\	.
.	.	.	.	.	.	.	.	.	.	.	.	16dd\JJ	.
4BB/	.	.	.	4BB/	.	4dd\	.	4ff#\	.	4bb\	.	16f#\LL	.
.	.	.	.	.	.	.	.	.	.	.	.	16dd\	.
.	.	.	.	.	.	.	.	.	.	.	.	16bb\	.
.	.	.	.	.	.	.	.	.	.	.	.	16dd\JJ	.
4BB/	.	.	.	4BB/	.	4dd\	.	4ff#\	.	4bb\	.	16f#\LL	.
.	.	.	.	.	.	.	.	.	.	.	.	16dd\	.
.	.	.	.	.	.	.	.	.	.	.	.	16bb\	.
.	.	.	.	.	.	.	.	.	.	.	.	16dd\JJ	.
=23	=23	=23	=23	=23	=23	=23	=23	=23	=23	=23	=23	=23	=23
4E#\	.	2.r	2.r	4E#\	.	4dd\	.	4gg#\	.	4bb\	.	16e#\LL	.
.	.	.	.	.	.	.	.	.	.	.	.	16dd\	.
.	.	.	.	.	.	.	.	.	.	.	.	16bb\	.
.	.	.	.	.	.	.	.	.	.	.	.	16dd\JJ	.
4E#\	.	.	.	4E#\	.	4dd\	.	4gg#\	.	4bb\	.	16e#\LL	.
.	.	.	.	.	.	.	.	.	.	.	.	16dd\	.
.	.	.	.	.	.	.	.	.	.	.	.	16bb\	.
.	.	.	.	.	.	.	.	.	.	.	.	16dd\JJ	.
4E#\	.	.	.	4E#\	.	4dd\	.	4gg#\	.	4bb\	.	16e#\LL	.
.	.	.	.	.	.	.	.	.	.	.	.	16dd\	.
.	.	.	.	.	.	.	.	.	.	.	.	16bb\	.
.	.	.	.	.	.	.	.	.	.	.	.	16dd\JJ	.
=24	=24	=24	=24	=24	=24	=24	=24	=24	=24	=24	=24	=24	=24
4F#\	.	2.r	2.r	4F#\	.	4cc#\	.	4ff#\	.	4bb\	.	16f#\LL	.
.	.	.	.	.	.	.	.	.	.	.	.	16cc#\	.
.	.	.	.	.	.	.	.	.	.	.	.	16bb\	.
.	.	.	.	.	.	.	.	.	.	.	.	16cc#\JJ	.
4F#\	.	.	.	4F#\	.	4cc#\	.	4ff#\	.	4bb\	.	16f#\LL	.
.	.	.	.	.	.	.	.	.	.	.	.	16cc#\	.
.	.	.	.	.	.	.	.	.	.	.	.	16bb\	.
.	.	.	.	.	.	.	.	.	.	.	.	16cc#\JJ	.
4F#\	.	.	.	4F#\	.	4cc#\	.	4ff#\	.	4bb\	.	16f#\LL	.
.	.	.	.	.	.	.	.	.	.	.	.	16cc#\	.
.	.	.	.	.	.	.	.	.	.	.	.	16bb\	.
.	.	.	.	.	.	.	.	.	.	.	.	16cc#\JJ	.
=25	=25	=25	=25	=25	=25	=25	=25	=25	=25	=25	=25	=25	=25
4FF#/	.	2.r	2.r	4FF#/	.	4cc#\	.	4ff#\	.	4aa#\	.	16f#\LL	.
.	.	.	.	.	.	.	.	.	.	.	.	16cc#\	.
.	.	.	.	.	.	.	.	.	.	.	.	16aa#\	.
.	.	.	.	.	.	.	.	.	.	.	.	16cc#\JJ	.
4FF#/	.	.	.	4FF#/	.	4cc#\	.	4ff#\	.	4aa#\	.	16f#\LL	.
.	.	.	.	.	.	.	.	.	.	.	.	16cc#\	.
.	.	.	.	.	.	.	.	.	.	.	.	16aa#\	.
.	.	.	.	.	.	.	.	.	.	.	.	16cc#\JJ	.
4FF#/	.	.	.	4FF#/	.	4cc#\	.	4ff#\	.	4aa#\	.	16f#\LL	.
.	.	.	.	.	.	.	.	.	.	.	.	16cc#\	.
.	.	.	.	.	.	.	.	.	.	.	.	16aa#\	.
.	.	.	.	.	.	.	.	.	.	.	.	16cc#\JJ	.
=26	=26	=26	=26	=26	=26	=26	=26	=26	=26	=26	=26	=26	=26
4BB/	.	2.r	2.r	4BB/	.	4dd\	.	4ff#\	.	4bb\	.	16b\LL	.
.	.	.	.	.	.	.	.	.	.	.	.	16dd\	.
.	.	.	.	.	.	.	.	.	.	.	.	16ff#\	.
.	.	.	.	.	.	.	.	.	.	.	.	16bb\JJ	.
4r	.	.	.	4r	.	4r	.	4r	.	4r	.	16ff#\LL	.
.	.	.	.	.	.	.	.	.	.	.	.	16dd\	.
.	.	.	.	.	.	.	.	.	.	.	.	16b\	.
.	.	.	.	.	.	.	.	.	.	.	.	16f#\JJ	.
4r	.	.	.	4r	.	4r	.	4r	.	4r	.	16b/LL	.
.	.	.	.	.	.	.	.	.	.	.	.	16f#/	.
.	.	.	.	.	.	.	.	.	.	.	.	16d/	.
.	.	.	.	.	.	.	.	.	.	.	.	16B/JJ	.
=27	=27	=27	=27	=27	=27	=27	=27	=27	=27	=27	=27	=27	=27
4BB/	.	2.r	2.r	4BB/	.	4d\	.	4f#/	.	4b\	.	16d/LL	.
.	.	.	.	.	.	.	.	.	.	.	.	16f#/	.
.	.	.	.	.	.	.	.	.	.	.	.	16b/	.
.	.	.	.	.	.	.	.	.	.	.	.	16f#/JJ	.
4BB/	.	.	.	4BB/	.	4d\	.	4f#/	.	4b\	.	16d/LL	.
.	.	.	.	.	.	.	.	.	.	.	.	16f#/	.
.	.	.	.	.	.	.	.	.	.	.	.	16b/	.
.	.	.	.	.	.	.	.	.	.	.	.	16f#/JJ	.
4BB/	.	.	.	4BB/	.	4d\	.	4f#/	.	4b\	.	16d/LL	.
.	.	.	.	.	.	.	.	.	.	.	.	16f#/	.
.	.	.	.	.	.	.	.	.	.	.	.	16b/	.
.	.	.	.	.	.	.	.	.	.	.	.	16f#/JJ	.
=28	=28	=28	=28	=28	=28	=28	=28	=28	=28	=28	=28	=28	=28
4E#\	.	2.r	2.r	4E#\	.	4d\	.	4g#/	.	4b\	.	16d/LL	.
.	.	.	.	.	.	.	.	.	.	.	.	16e#/	.
.	.	.	.	.	.	.	.	.	.	.	.	16b/	.
.	.	.	.	.	.	.	.	.	.	.	.	16e#/JJ	.
4E#\	.	.	.	4E#\	.	4d\	.	4g#/	.	4b\	.	16d/LL	.
.	.	.	.	.	.	.	.	.	.	.	.	16e#/	.
.	.	.	.	.	.	.	.	.	.	.	.	16b/	.
.	.	.	.	.	.	.	.	.	.	.	.	16e#/JJ	.
4E#\	.	.	.	4E#\	.	4d\	.	4g#/	.	4b\	.	16d/LL	.
.	.	.	.	.	.	.	.	.	.	.	.	16e#/	.
.	.	.	.	.	.	.	.	.	.	.	.	16b/	.
.	.	.	.	.	.	.	.	.	.	.	.	16e#/JJ	.
=29	=29	=29	=29	=29	=29	=29	=29	=29	=29	=29	=29	=29	=29
4F#\	.	2.r	2.r	4F#\	.	4c#\	.	4f#/	.	4b\	.	16c#/LL	.
.	.	.	.	.	.	.	.	.	.	.	.	16f#/	.
.	.	.	.	.	.	.	.	.	.	.	.	16b/	.
.	.	.	.	.	.	.	.	.	.	.	.	16f#/JJ	.
4F#\	.	.	.	4F#\	.	4c#\	.	4f#/	.	4b\	.	16c#/LL	.
.	.	.	.	.	.	.	.	.	.	.	.	16f#/	.
.	.	.	.	.	.	.	.	.	.	.	.	16b/	.
.	.	.	.	.	.	.	.	.	.	.	.	16f#/JJ	.
4F#\	.	.	.	4F#\	.	4c#\	.	4f#/	.	4b\	.	16c#/LL	.
.	.	.	.	.	.	.	.	.	.	.	.	16f#/	.
.	.	.	.	.	.	.	.	.	.	.	.	16b/	.
.	.	.	.	.	.	.	.	.	.	.	.	16f#/JJ	.
=30	=30	=30	=30	=30	=30	=30	=30	=30	=30	=30	=30	=30	=30
4FF#/	.	2.r	2.r	4FF#/	.	4c#\	.	4f#/	.	4a#/	.	16c#/LL	.
.	.	.	.	.	.	.	.	.	.	.	.	16f#/	.
.	.	.	.	.	.	.	.	.	.	.	.	16a#/	.
.	.	.	.	.	.	.	.	.	.	.	.	16f#/JJ	.
4FF#/	.	.	.	4FF#/	.	4c#\	.	4f#/	.	4a#/	.	16c#/LL	.
.	.	.	.	.	.	.	.	.	.	.	.	16f#/	.
.	.	.	.	.	.	.	.	.	.	.	.	16a#/	.
.	.	.	.	.	.	.	.	.	.	.	.	16f#/JJ	.
4FF#/	.	.	.	4FF#/	.	4c#\	.	4f#/	.	4a#/	.	16c#/LL	.
.	.	.	.	.	.	.	.	.	.	.	.	16f#/	.
.	.	.	.	.	.	.	.	.	.	.	.	16a#/	.
.	.	.	.	.	.	.	.	.	.	.	.	16f#/JJ	.
=31	=31	=31	=31	=31	=31	=31	=31	=31	=31	=31	=31	=31	=31
*	*	*	*	*	*	*	*	*	*	*	*	*^	*
2.BB;/	.	2.r	2.r	2.BB;/	.	2.d;\	.	2.f#;/	.	2.b;\	.	2.b;/	8B\ 8f#\	.
.	.	.	.	.	.	.	.	.	.	.	.	.	8r	.
.	.	.	.	.	.	.	.	.	.	.	.	.	4r	.
.	.	.	.	.	.	.	.	.	.	.	.	.	4r	.
*	*	*	*	*	*	*	*	*	*	*	*	*v	*v	*
==	==	==	==	==	==	==	==	==	==	==	==	==	==
*-	*-	*-	*-	*-	*-	*-	*-	*-	*-	*-	*-	*-	*-
!!!ENC: Don Anthony
!!!END: 2005/06/10/
!!!ONB: Converted to Humdrum by Craig Sapp 2005/06/24/
